!!!COM: Scarlatti, Domenico
!!!CDT: 1685///-1757///
!!!OTL: Sonata in C Major, K.514, L.1
!!!SCT: K. 514
!!!SCT: L. 001
!!!OMD: Allegro ([half]=96)
**kern	**kern	**dynam
*staff2	*staff1	*staff1/2
*Icemba	*Icemba	*Icemba
*I"1.	*I"1.	*
*>[A,A,B,B]	*>[A,A,B,B]	*>[A,A,B,B]
*>norep[A,B]	*>norep[A,B]	*>norep[A,B]
*>A	*>A	*>A
*clefF4	*clefG2	*
*k[]	*k[]	*
*C:	*C:	*
*M2/2	*M2/2	*
*met(c|)	*met(c|)	*
*MM192	*MM192	*MM192
=1-	=1-	=1-
2C	8r	f
.	8cc'L	.
.	8ee'	.
.	8gg'J	.
8r	2ccc	.
(8gL	.	.
8e	.	.
8cJ)	.	.
=2	=2	=2
2CC	8r	.
.	8cc'L	.
.	8ee'	.
.	8gg'J	.
8r	2ccc	.
(8gL	.	.
8e	.	.
8cJ)	.	.
=3	=3	=3
2CC	8r	.
.	8cc'L	.
.	8ee'	.
.	8gg'J	.
8r	2ccc	.
(8gL	.	.
8e	.	.
8cJ)	.	.
=4	=4	=4
4FF'	2aa	.
(4F	.	.
4G	(2ddT	.
4GG	.	.
.	16qccL	.
.	16qddJ	.
!!LO:LB:g=z
=5	=5	=5
2CC)	8cc')	.
.	8cc'L	.
.	8ee'	.
.	8gg'J	.
8r	2ccc^	.
(8gL	.	.
8e	.	.
8cJ)	.	.
=6	=6	=6
4FF'	2aa	.
(4F	.	.
4G	(2ddT	.
4GG	.	.
.	16qccL	.
.	16qddJ	.
=7	=7	=7
2CC)	4cc')	.
.	4ccc'	.
(2cT	(2et	.
16qBL	16qdL	.
16qcJ	16qeJ	.
=8	=8	=8
4B')	4d')	.
4BB'	4ddd'	.
(2Bt	(2dT	.
16qAL	16qcL	.
16qBJ	16qdJ	.
=9	=9	=9
4A')	4c')	.
4AA'	4ccc'	.
(2AT	(2cT	.
16qGL	16qBL	.
16qAJ	16qcJ	.
!!LO:LB:g=z
=10	=10	=10
4G')	4B')	.
4GG'	4bb'	.
(2GT	(2Bt	.
16qF#L	16qAL	.
16qGJ)	16qBJ)	.
*clefG2	*	*
=11	=11	=11
4gg'	([2ddd	.
*clefF4	*	*
4GG'	.	.
2DD	12dddL]	.
.	12ccc	.
.	12bbJ	.
*	*Xtuplet	*
.	12aaL	.
.	12bb	.
.	12cccJ	.
*clefG2	*	*
=12	=12	=12
4gg'	12bbL	.
.	12ccc	.
.	12dddJ)	.
*clefF4	*	*
4GG'	([4ddd	.
2DD	12dddL]	.
.	12ccc	.
.	12bbJ	.
.	12aaL	.
.	12bb	.
.	12cccJ	.
*clefG2	*	*
=13	=13	=13
4gg'	12bbL	.
.	12ccc	.
.	12dddJ)	.
*clefF4	*	*
4GG'	([4ddd	.
2DD	12dddL]	.
.	12ddd	.
.	12bbJ	.
.	12aaL	.
.	12bb	.
.	12cccJ	.
!!LO:LB:g=z
=14	=14	=14
2GG	12bbL	.
.	12ccc	.
.	12dddJ)	.
.	(12dddL	.
.	12eee	.
.	12fff#J	.
2GGG	12gggL	.
.	12fff#	.
.	12eeeJ	.
.	12dddL	.
.	12ccc	.
.	12bbJ)	.
=15	=15	=15
2CC	(12eeeL	.
.	12ddd	.
.	12cccJ	.
.	12bbL	.
.	12aa	.
.	12ggJ)	.
2C	(12cccL	.
.	12bb	.
.	12aaJ	.
.	12ggL	.
.	12ff#	.
.	12eeJ	.
=16	=16	=16
2D	([4dd)	.
.	16ddLL]	.
.	16ee	.
.	16ff#	.
.	16ggJJ	.
(2DD	4.aaT	.
.	16ggLL	.
.	16aaJJ	.
=17	=17	=17
2GG)	2gg)	.
!	!	!LO:DY:rj
4G' (4fn'	2r	p
4G' 4f')	.	.
!!LO:LB:g=z
=18	=18	=18
(4G' 4e'	2r	.
4G' 4e')	.	.
(4G' 4f#'	(4.aaT	.
4G' 4f#')	.	.
.	16ggLL	.
.	16aaJJ	.
=19	=19	=19
2G 2g	2gg)	.
4G' (4fn'	2r	.
4G' 4f')	.	.
=20	=20	=20
4G' 4e'	2r	.
4G' 4e'	.	.
4G' 4f#'	(4.aaT	<
4G' 4f#'	.	.
.	16ggLL	.
.	16aaJJ	.
=21	=21	=21
*	*tuplet	*
2G 2g	12ggL)	f
.	(12ggg	.
.	12dddJ	.
.	12bbL	.
.	12gg	.
.	12ddJ	.
*Xbrackettup	*	*
12r	8g')	.
(12dL	.	.
.	8r	.
12BJ)	.	.
12r	8G'	.
(12DL	.	.
.	8r	.
12GGJ	.	.
!!LO:LB:g=z
=22	=22	=22
4CC')	2eee	.
(4C	.	.
4D/	(2aaT	.
4DD	.	.
.	16qggL	.
.	16qaaJ	.
=23	=23	=23
2GGG)	2gg)	.
2GGG	4g' 4ffn'	p
.	4g' 4ff'	.
=24	=24	=24
*	*^	*
2GGG	2ryy	4g' (4ee'	.
.	.	4g' 4ee')	.
2GGG	(2ff#	(4.ccT	.
.	.	16bLL	.
.	.	16ccJJ	.
=25	=25	=25	=25
2GGG	2gg)	2b)	.
2GGG	2ryy	4g' (4ffn'	.
.	.	4g' 4ff')	.
=26	=26	=26	=26
2GGG	2ryy	4g' (4ee'	.
.	.	4g' 4ee')	.
2GGG	(2ff#	(4.ccT	<
.	.	16bLL	.
.	.	16ccJJ	.
*	*v	*v	*
!!LO:LB:g=z
=27	=27	=27
2GGG	12b) 12ggL)	f
.	(12gg	.
.	12ddJ	.
*	*Xtuplet	*
.	12bL	.
.	12g	.
.	12dJ)	.
*Xtuplet	*	*
(<12GL	2r	.
12D	.	.
12BBJ	.	.
12GGL	.	.
12DD	.	.
12GGGJ	.	.
=28	=28	=28
4CC')	2eee	.
(4C	.	.
4D/	(2aaT	.
4DD	.	.
.	16qggL	.
.	16qaaJ	.
=29	=29	=29
*	*Xtuplet	*
2GGG)	12ggL)	.
.	(12ggg	.
.	12dddJ	.
.	12bbL	.
.	12gg	.
.	12ddJ	.
*tuplet	*	*
*Xbrackettup	*	*
12r	8g')	.
(12dL	.	.
.	8r	.
12BJ)	.	.
!LO:TUP:b	!	!
12r	8G'	.
(>12DL	.	.
.	8r	.
12GGJ	.	.
=30	=30	=30
4CC')	2ee	.
(4C	.	.
4D/	(2aT	.
4DD	.	.
.	16qgL	.
.	16qaJ	.
=31	=31	=31
1GGG)	1g)	.
!!LO:LB:g=z
=32:|!|:	=32:|!|:	=32:|!|:
*>B	*>B	*>B
4G' (4g'	1r	p
4G' 4g')	.	.
4G' (4fn'	.	.
4G' 4f')	.	.
=33	=33	=33
4G' (4e'	1r	.
4G' 4e')	.	.
4G' (4d'	.	.
4G' 4d')	.	.
=34	=34	=34
2G' 2A' 2c#'	(4aa	mf
.	2a\)	.
2r	.	.
.	4r	.
=35	=35	=35
!	!	!LO:DY:rj
4A' (4a'	1r	p
4A' 4a')	.	.
4A' (4g'	.	.
4A' 4g')	.	.
=36	=36	=36
4A' (4f'	1r	.
4A' 4f')	.	.
4A' (4e'	.	.
4A' 4e')	.	.
=37	=37	=37
2A 2B 2d#	(4bb	mf
.	2b)	.
2r	.	.
.	4r	.
*clefG2	*	*
!!LO:LB:g=z
=38	=38	=38
(4c' 4cc'	1r	p
4c') 4cc'	.	.
(4c' 4b'	.	.
4c') 4b'	.	.
=39	=39	=39
(4c' 4a'	1r	.
4c') 4a'	.	.
(4c' 4g'	.	.
4c') 4g'	.	.
=40	=40	=40
(4c' 4d' 4f'	(4ddd	<
4c' 4d' 4f'	2dd)	.
4c' 4d' 4f'	.	.
4c') 4d' 4f'	4r	.
=41	=41	=41
(4B' 4d' 4f'	(4ddd	.
4B' 4d' 4f'	2dd)	.
4B' 4d' 4f'	.	.
4B') 4d' 4f'	4r	.
=42	=42	=42
(4A' 4d' 4f'	(4ddd	mf
4A' 4d' 4f'	2dd)	.
4A' 4d' 4f'	.	.
4A') 4d' 4f'	4r	.
!!LO:LB:g=z
=43	=43	=43
!	!	!LO:HP:t=dim.
(4G' 4d' 4f'	(4ddd	>
4G' 4d' 4f'	2dd)	.
4G' 4d' 4f'	.	.
4G') 4d' 4f'	4r	.
=44	=44	=44
(4G' 4e'	(4cc	p
4G') 4e'	4ccc)	.
(4G' 4f#'	(4cc	.
4G') 4f#'	4ccc)	.
=45	=45	=45
*	*tuplet	*
(4G' 4g'	(12bbL	.
.	12aa	.
.	12ggJ	.
4G') 4g'	4gg')	.
(4G' 4f#'	(4cc	.
4G') 4f#'	4ccc)	.
=46	=46	=46
*	*Xtuplet	*
(4G' 4g'	(12bbL	.
.	12aa	.
.	12ggJ	.
4G') 4g'	4gg')	.
!	!LO:TX:c:i:t=rall&colon;..........................	!
(4G' 4f#'	(4cc	.
4G') 4f#'	4ccc)	.
=47	=47	=47
2G 2g	(12bbL	.
.	12aa	.
.	12ggJ	.
.	4gg')	.
2r	2r	.
!!LO:PB:g=z
=48	=48	=48
!	!	!LO:DY:t=%s deciso
4cc'	2ccc [2eee	f
*clefF4	*	*
4CC'	.	.
*	*tuplet	*
2GGG	12eeeL]	.
.	(12ddd	.
.	12eeeJ	.
.	12fffL	.
.	12eee	.
.	12dddJ	.
*clefG2	*	*
=49	=49	=49
4cc'	2ccc [2eee)	.
*clefF4	*	*
4CC'	.	.
*	*Xtuplet	*
2GGG	12eeeL]	.
.	(12ddd	.
.	12eeeJ	.
.	12fffL	.
.	12eee	.
.	12dddJ	.
*clefG2	*	*
=50	=50	=50
4cc'	2ccc [2eee)	.
*clefF4	*	*
4CC'	.	.
2GGG	12eeeL]	.
.	(12ddd	.
.	12eeeJ	.
.	12fffL	.
.	12eee	.
.	12dddJ	.
!!LO:LB:g=z
=51	=51	=51
2CC	12eeeL	.
.	12ggg	.
.	12fffJ	.
.	12eeeL	.
.	12ddd	.
.	12cccJ	.
2C	12bb-L	.
.	12ddd	.
.	12cccJ	.
.	12bb-L	.
.	12aa	.
.	12ggJ	.
=52	=52	=52
2FF	12aaL	.
.	12ccc	.
.	12bbnJ	.
.	12aaL	.
.	12gg	.
.	12ffJ)	.
2F	(12ffL	.
.	12aa	.
.	12ggJ	.
.	12ffL	.
.	12ee	.
.	12ddJ	.
=53	=53	=53
2G	[4cc	.
.	16ccLL]	.
.	16ddJ	.
.	32ccLL	.
.	32b	.
.	32cc	.
.	32ddJJJ)	.
(2GG	(4.ddM	.
.	8cc)	.
=54	=54	=54
2CC)	2cc	.
*clefG2	*	*
(4c' 4b-'	2r	p
4c') 4b-'	.	.
!!LO:LB:g=z
=55	=55	=55
(4c' 4a'	2r	.
4c' 4a')	.	.
(4c' 4bn'	(4.dddT	.
4c' 4b')	.	.
.	16cccLL	.
.	16dddJJ	.
=56	=56	=56
2c 2cc	2ccc)	.
(4c' 4b-'	2r	.
4c') 4b-'	.	.
=57	=57	=57
(4c' 4a'	2r	.
4c' 4a')	.	.
(4c' 4bn'	(4.dddT	<
4c' 4b')	.	.
.	16cccLL	.
.	16dddJJ	.
=58	=58	=58
*	*Xbrackettup	*
*	*tuplet	*
2c 2cc	12ccc)	f
.	(12cccL	.
*	*Xtuplet	*
.	12ggJ	.
.	12eeL	.
.	12cc	.
.	12gJ)	.
*clefF4	*	*
*Xtuplet	*	*
(12cL	2r	.
12G	.	.
12EJ	.	.
12CL	.	.
12GG	.	.
12CCJ	.	.
!!LO:LB:g=z
=59	=59	=59
4FF')	2aa	.
(4F	.	.
4G	(2ddT	.
4GG	.	.
.	16qccL	.
.	16qddJ	.
=60	=60	=60
2CC)	2cc)	.
2CC	(4cc' 4bb-'	p
.	4cc' 4bb-')	.
=61	=61	=61
*	*^	*
2CC	2ryy	4cc' (4aa'	.
.	.	4cc' 4aa')	.
2CC	(2bbn	(4.ffT	.
.	.	16eeLL	.
.	.	16ffJJ	.
*	*v	*v	*
=62	=62	=62
2CC	2ee) 2ccc)	.
2CC	4cc' (4bb-'	.
.	4cc' 4bb-')	.
=63	=63	=63
*	*^	*
2CC	2ryy	4cc' (4aa'	.
.	.	4cc' 4aa')	.
2CC	(2bbn	(4.ff	<
.	.	16eeLL	.
.	.	16ffJJ	.
*	*v	*v	*
!!LO:LB:g=z
=64	=64	=64
2CC	12ee 12ccc))	f
.	(12cccL	.
.	12ggJ	.
.	12eeL	.
.	12cc	.
.	12gJ)	.
(12cL	2r	.
12G	.	.
12EJ	.	.
12CL	.	.
12GG	.	.
12CCJ	.	.
=65	=65	=65
4FF')	2aa	.
(4F	.	.
4G	(2ddT	.
4GG	.	.
.	16qccL	.
.	16qddJ	.
=66	=66	=66
2CC)	12ccL)	.
.	(12ccc	.
.	12ggJ	.
.	12eeL	.
.	12cc	.
.	12gJ)	.
(12cL	2r	.
12G	.	.
12EJ	.	.
12CL	.	.
12GG	.	.
12CCJ	.	.
=67	=67	=67
4FF')	2a	.
(4F	.	.
4G	(2dT	.
4GG	.	.
.	16qcL	.
.	16qdJ	.
=68	=68	=68
1CC)	1c)	.
==:|!	==:|!	==:|!
*-	*-	*-
!!!RDF**kern: > = above
!!!RDF**kern: < = below
!!!PTL: Domenico Scarlatti: Opere complete per clavicembalo, vol. 1
!!!PED: Longo, Alessandro
!!!PPR: Ricordi
!!!PPP: Milan
!!!PDT: 1906-1913
!!!ENC: Kelly Leistikow and Craig Stuart Sapp
!!!END: 2005/06/30
!!!EED: Craig Stuart Sapp
!!!EEV: 2012/18/20
